X:1
T:James Gibb editions
T:A painted tale - Morley
T:#
%%score [ 1 2 ]
L:1/8
Q:1/4=130
M:4/4
K:C
V:1 treble-8 nm="Tenor"
V:2 bass nm="Lute"
V:1
"^A painted tale""^Thomas Morley\n(1557-1602)" z8 | z8 | z8 | z8 | z4 e4 | A4 c4 | B8 | z4 A4 | %8
w: ||||A|paint- ed|tale|by|
 d8 | c4 B4- | B4 A4 | ^G8 | z4 e4 |[M:4/4][K:treble-8] B4 c4 | B4 G4 | A4 c4 | B6 B2 | A8 | z8 | %19
w: po-|ets' skill|* de-|vis'd,|Where|words well|plac'd great|store of|love pro|fess'd,||
 z8 | z8 | z4 f4 | e4 A4 | c6 c2 | B4 c4 | A6 A2 | G8 | z8 | z8 | z4 z2 B2 | c4 d4 | e4 A2 d2- | %32
w: ||In|Love's at-|tire can|ne- ver|mask dis-|guis'd;|||For|looks and|sighs true love|
 d2 c2 B2 B2 | A8 | z8 | c4 B2 A2 | ^G6 G2 | A2 c2 c2 B2 | c8 | z8 | z4 A4 | d4 c4 | B8 | z8 | %44
w: * can best ex-|press.||And he whose|words his|pas- sions right can|tell||Doth|more m|words,||
 z4 e4 | g4 f4 | e4 A4 | ^G8 | A4 c4 | B8 | A8 | z8 | c4 B2 A2 | ^G6 G2 | A2 c2 c2 B2 | c8 | z8 | %57
w: doth|more in|words than|m|true love|ex-|cel.||And he whose|words his|pas- sions right can|tell||
 z4 A4 | d4 c4 | B8 | z8 | z4 e4 | g4 f4 | e4 A4 | ^G8 | A4 c4 | B8 | A16 |] %68
w: Doth|more in|words,||doth|more in|words than|in|true love|ex-|cel.|
V:2
 A,,6 B,,2 | ^C,4 D,4 | E,6 C,2 | D,4 E,4 | A,,8 | A,,4 A,,4 | E,8 | E,4 C,4 | B,,8 | A,,4 B,,4 | %10
 G,,4 A,,4 | E,,8 | E,4 A,,4 |[M:4/4] ^G,,4 A,,4 | E,6 D,2 | C,2 B,,2 A,,4 | E,8 | A,,4 D,4 | %18
 C,4 F,4 | E,4 C,4 | G,4 E,4 | D,8 | C,4 D,4 | A,,3 B,, C,2 D,2 | E,4 E,4 | F,8 | E,6 E,2 | %27
 F,4 G,4 | A,3 G, F,E, D,2 | E,8 | A,,4 z2 B,,2 | C,4 D,4 | E,8 | A,,8 | F,4 E,2 D,2 | C,4 D,4 | %36
 E,6 E,2 | F,G, A,2 G,4 | C,6 D,2 | E,4 D,4 | C,4 C,4 | B,,4 A,,4 | E,4 E,4 | G,4 F,4 | E,8 | %45
 E,4 D,4 | C,4 D,4 | E,6 D,2 | C,4 A,,4 | E,8 | A,,8 | F,4 E,2 D,2 | C,4 D,4 | E,6 E,2 | %54
 F,G, A,2 G,4 | C,6 D,2 | E,4 D,4 | C,4 C,4 | B,,4 A,,4 | E,4 E,4 | G,4 F,4 | E,8 | E,4 D,4 | %63
 C,4 D,4 | E,6 D,2 | C,4 A,,4 | E,8 | A,,16 |] %68

